Newaita-dark/devices/64/pda.svg

<?xml version="1.0" encoding="UTF-8"?>
<svg xmlns="http://www.w3.org/2000/svg" xmlns:xlink="http://www.w3.org/1999/xlink" width="64pt" height="64pt" viewBox="0 0 64 64" version="1.1">
<defs>
<linearGradient id="linear0" gradientUnits="userSpaceOnUse" x1="254" y1="233.5" x2="254" y2="254.666672" gradientTransform="matrix(0.125012,0,0,0.125012,-0.00000763012,26.87757)">
<stop offset="0" style="stop-color:rgb(0%,0%,0%);stop-opacity:0.27451;"/>
<stop offset="1" style="stop-color:rgb(0%,0%,0%);stop-opacity:0;"/>
</linearGradient>
<radialGradient id="radial0" gradientUnits="userSpaceOnUse" cx="450.908936" cy="189.579361" fx="450.908936" fy="189.579361" r="21.166656" gradientTransform="matrix(0.000000348341,-0.156265,-0.281277,-0.000000203077,97.646083,127.190665)">
<stop offset="0" style="stop-color:rgb(0%,0%,0%);stop-opacity:0.313725;"/>
<stop offset="0.222222" style="stop-color:rgb(0%,0%,0%);stop-opacity:0.27451;"/>
<stop offset="1" style="stop-color:rgb(0%,0%,0%);stop-opacity:0;"/>
</radialGradient>
<radialGradient id="radial1" gradientUnits="userSpaceOnUse" cx="450.908936" cy="189.579361" fx="450.908936" fy="189.579361" r="21.166656" gradientTransform="matrix(-0.000000348341,0.156265,0.281277,0.000000203077,-34.140017,-15.054958)">
<stop offset="0" style="stop-color:rgb(0%,0%,0%);stop-opacity:0.313725;"/>
<stop offset="0.222222" style="stop-color:rgb(0%,0%,0%);stop-opacity:0.27451;"/>
<stop offset="1" style="stop-color:rgb(0%,0%,0%);stop-opacity:0;"/>
</radialGradient>
<radialGradient id="radial2" gradientUnits="userSpaceOnUse" cx="450.908936" cy="189.579361" fx="450.908936" fy="189.579361" r="21.166656" gradientTransform="matrix(-0.000000348341,-0.156265,0.281277,-0.000000203077,-34.140017,127.190665)">
<stop offset="0" style="stop-color:rgb(0%,0%,0%);stop-opacity:0.313725;"/>
<stop offset="0.222222" style="stop-color:rgb(0%,0%,0%);stop-opacity:0.27451;"/>
<stop offset="1" style="stop-color:rgb(0%,0%,0%);stop-opacity:0;"/>
</radialGradient>
<radialGradient id="radial3" gradientUnits="userSpaceOnUse" cx="450.908936" cy="189.579361" fx="450.908936" fy="189.579361" r="21.166656" gradientTransform="matrix(0.000000348341,0.156265,-0.281277,0.000000203077,97.646079,-15.054959)">
<stop offset="0" style="stop-color:rgb(0%,0%,0%);stop-opacity:0.313725;"/>
<stop offset="0.222222" style="stop-color:rgb(0%,0%,0%);stop-opacity:0.27451;"/>
<stop offset="1" style="stop-color:rgb(0%,0%,0%);stop-opacity:0;"/>
</radialGradient>
<linearGradient id="linear1" gradientUnits="userSpaceOnUse" x1="306.916656" y1="-25.791676" x2="305.954559" y2="-141.414581" gradientTransform="matrix(0.150699,0,0,0.434824,-11.708026,67.282696)">
<stop offset="0" style="stop-color:rgb(45.882353%,45.882353%,45.882353%);stop-opacity:1;"/>
<stop offset="1" style="stop-color:rgb(61.960784%,61.960784%,61.960784%);stop-opacity:1;"/>
</linearGradient>
<linearGradient id="linear2" gradientUnits="userSpaceOnUse" x1="254" y1="170" x2="254" y2="-147.5" >
<stop offset="0" style="stop-color:rgb(25.882353%,25.882353%,25.882353%);stop-opacity:1;"/>
<stop offset="1" style="stop-color:rgb(38.039216%,38.039216%,38.039216%);stop-opacity:1;"/>
</linearGradient>
</defs>
<g id="surface1">
<path style=" stroke:none;fill-rule:nonzero;fill:url(#linear0);" d="M 18.523438 56.066406 L 44.984375 56.066406 L 44.984375 58.714844 L 18.523438 58.714844 Z M 18.523438 56.066406 "/>
<path style=" stroke:none;fill-rule:nonzero;fill:url(#radial0);" d="M 44.984375 56.066406 L 50.277344 56.066406 L 50.277344 53.421875 L 44.984375 53.421875 Z M 44.984375 56.066406 "/>
<path style=" stroke:none;fill-rule:nonzero;fill:url(#radial1);" d="M 18.523438 56.066406 L 13.230469 56.066406 L 13.230469 58.714844 L 18.523438 58.714844 Z M 18.523438 56.066406 "/>
<path style=" stroke:none;fill-rule:nonzero;fill:url(#radial2);" d="M 18.523438 56.066406 L 13.230469 56.066406 L 13.230469 53.421875 L 18.523438 53.421875 Z M 18.523438 56.066406 "/>
<path style=" stroke:none;fill-rule:nonzero;fill:url(#radial3);" d="M 44.984375 56.066406 L 50.277344 56.066406 L 50.277344 58.714844 L 44.984375 58.714844 Z M 44.984375 56.066406 "/>
<path style=" stroke:none;fill-rule:nonzero;fill:url(#linear1);" d="M 18.523438 5.792969 L 44.984375 5.792969 C 47.90625 5.792969 50.277344 8.160156 50.277344 11.085938 L 50.277344 50.777344 C 50.277344 53.699219 47.90625 56.066406 44.984375 56.066406 L 18.523438 56.066406 C 15.601562 56.066406 13.230469 53.699219 13.230469 50.777344 L 13.230469 11.085938 C 13.230469 8.160156 15.601562 5.792969 18.523438 5.792969 Z M 18.523438 5.792969 "/>
<path style="fill-rule:nonzero;fill:url(#linear2);stroke-width:3;stroke-linecap:round;stroke-linejoin:miter;stroke:rgb(12.941177%,12.941177%,12.941177%);stroke-opacity:1;stroke-miterlimit:4;" d="M 148.17335 -147.506445 L 359.840637 -147.506445 C 371.527021 -147.506445 380.994867 -138.038599 380.994867 -126.320968 L 380.994867 106.500548 C 380.994867 118.186932 371.527021 127.654778 359.840637 127.654778 L 148.17335 127.654778 C 136.486966 127.654778 126.987873 118.186932 126.987873 106.500548 L 126.987873 -126.320968 C 126.987873 -138.038599 136.486966 -147.506445 148.17335 -147.506445 Z M 148.17335 -147.506445 " transform="matrix(0.125012,0,0,0.125012,0,26.877566)"/>
<path style="fill-rule:nonzero;fill:rgb(38.039216%,38.039216%,38.039216%);fill-opacity:0.27451;stroke-width:3;stroke-linecap:round;stroke-linejoin:miter;stroke:rgb(12.941177%,12.941177%,12.941177%);stroke-opacity:1;stroke-miterlimit:4;" d="M 211.667287 -163.379929 L 296.3467 -163.379929 C 299.252673 -163.379929 301.627446 -161.005156 301.627446 -158.067937 C 301.627446 -155.161964 299.252673 -152.787191 296.3467 -152.787191 L 211.667287 -152.787191 C 208.730067 -152.787191 206.386541 -155.161964 206.386541 -158.067937 C 206.386541 -161.005156 208.730067 -163.379929 211.667287 -163.379929 Z M 211.667287 -163.379929 " transform="matrix(0.125012,0,0,0.125012,0,26.877566)"/>
<path style="fill-rule:nonzero;fill:rgb(38.039216%,38.039216%,38.039216%);fill-opacity:0.27451;stroke-width:3;stroke-linecap:round;stroke-linejoin:miter;stroke:rgb(12.941177%,12.941177%,12.941177%);stroke-opacity:1;stroke-miterlimit:4;" d="M 254.006994 159.401746 C 265.693378 159.401746 275.161223 168.900839 275.161223 180.587223 C 275.161223 192.273607 265.693378 201.741453 254.006994 201.741453 C 242.32061 201.741453 232.821517 192.273607 232.821517 180.587223 C 232.821517 168.900839 242.32061 159.401746 254.006994 159.401746 Z M 254.006994 159.401746 " transform="matrix(0.125012,0,0,0.125012,0,26.877566)"/>
<path style=" stroke:none;fill-rule:nonzero;fill:rgb(100%,100%,100%);fill-opacity:0.392157;" d="M 18.523438 5.792969 C 15.589844 5.792969 13.230469 8.152344 13.230469 11.085938 L 13.230469 11.746094 C 13.230469 8.8125 15.589844 6.453125 18.523438 6.453125 L 44.984375 6.453125 C 47.914062 6.453125 50.277344 8.8125 50.277344 11.746094 L 50.277344 11.085938 C 50.277344 8.152344 47.914062 5.792969 44.984375 5.792969 Z M 18.523438 5.792969 "/>
<path style=" stroke:none;fill-rule:nonzero;fill:rgb(0%,0%,0%);fill-opacity:0.235294;" d="M 18.523438 56.066406 C 15.589844 56.066406 13.230469 53.707031 13.230469 50.777344 L 13.230469 50.113281 C 13.230469 53.046875 15.589844 55.40625 18.523438 55.40625 L 44.984375 55.40625 C 47.914062 55.40625 50.277344 53.046875 50.277344 50.113281 L 50.277344 50.777344 C 50.277344 53.707031 47.914062 56.066406 44.984375 56.066406 Z M 18.523438 56.066406 "/>
<path style="fill:none;stroke-width:3;stroke-linecap:round;stroke-linejoin:miter;stroke:rgb(12.941177%,12.941177%,12.941177%);stroke-opacity:1;stroke-miterlimit:4;" d="M 148.17335 -168.660675 L 359.840637 -168.660675 C 383.213405 -168.660675 402.180344 -149.724983 402.180344 -126.320968 L 402.180344 191.179962 C 402.180344 214.55273 383.213405 233.488421 359.840637 233.488421 L 148.17335 233.488421 C 124.800582 233.488421 105.833643 214.55273 105.833643 191.179962 L 105.833643 -126.320968 C 105.833643 -149.724983 124.800582 -168.660675 148.17335 -168.660675 Z M 148.17335 -168.660675 " transform="matrix(0.125012,0,0,0.125012,0,26.877566)"/>
<path style="fill-rule:nonzero;fill:rgb(38.039216%,38.039216%,38.039216%);fill-opacity:0.27451;stroke-width:3;stroke-linecap:round;stroke-linejoin:miter;stroke:rgb(12.941177%,12.941177%,12.941177%);stroke-opacity:1;stroke-miterlimit:4;" d="M 338.65516 159.401746 C 350.341544 159.401746 359.840637 168.900839 359.840637 180.587223 C 359.840637 192.273607 350.341544 201.741453 338.65516 201.741453 C 326.968776 201.741453 317.50093 192.273607 317.50093 180.587223 C 317.50093 168.900839 326.968776 159.401746 338.65516 159.401746 Z M 338.65516 159.401746 " transform="matrix(0.125012,0,0,0.125012,0,26.877566)"/>
<path style="fill-rule:nonzero;fill:rgb(38.039216%,38.039216%,38.039216%);fill-opacity:0.27451;stroke-width:3;stroke-linecap:round;stroke-linejoin:miter;stroke:rgb(12.941177%,12.941177%,12.941177%);stroke-opacity:1;stroke-miterlimit:4;" d="M 169.32758 159.401746 C 181.013964 159.401746 190.513057 168.900839 190.513057 180.587223 C 190.513057 192.273607 181.013964 201.741453 169.32758 201.741453 C 157.641196 201.741453 148.17335 192.273607 148.17335 180.587223 C 148.17335 168.900839 157.641196 159.401746 169.32758 159.401746 Z M 169.32758 159.401746 " transform="matrix(0.125012,0,0,0.125012,0,26.877566)"/>
</g>
</svg>

<svg xmlns="http://www.w3.org/2000/svg" width="64pt" height="64pt" viewBox="0 0 64 64"><defs><linearGradient id="a" gradientUnits="userSpaceOnUse" x1="254" y1="233.5" x2="254" y2="254.667" gradientTransform="translate(0 26.878) scale(.12501)"><stop offset="0" stop-opacity=".275"/><stop offset="1" stop-opacity="0"/></linearGradient><radialGradient id="b" gradientUnits="userSpaceOnUse" cx="450.909" cy="189.579" fx="450.909" fy="189.579" r="21.167" gradientTransform="matrix(0 -.15626 -.28128 0 97.646 127.19)"><stop offset="0" stop-opacity=".314"/><stop offset=".222" stop-opacity=".275"/><stop offset="1" stop-opacity="0"/></radialGradient><radialGradient id="c" gradientUnits="userSpaceOnUse" cx="450.909" cy="189.579" fx="450.909" fy="189.579" r="21.167" gradientTransform="matrix(0 .15626 .28128 0 -34.14 -15.055)"><stop offset="0" stop-opacity=".314"/><stop offset=".222" stop-opacity=".275"/><stop offset="1" stop-opacity="0"/></radialGradient><radialGradient id="d" gradientUnits="userSpaceOnUse" cx="450.909" cy="189.579" fx="450.909" fy="189.579" r="21.167" gradientTransform="matrix(0 -.15626 .28128 0 -34.14 127.19)"><stop offset="0" stop-opacity=".314"/><stop offset=".222" stop-opacity=".275"/><stop offset="1" stop-opacity="0"/></radialGradient><radialGradient id="e" gradientUnits="userSpaceOnUse" cx="450.909" cy="189.579" fx="450.909" fy="189.579" r="21.167" gradientTransform="matrix(0 .15626 -.28128 0 97.646 -15.055)"><stop offset="0" stop-opacity=".314"/><stop offset=".222" stop-opacity=".275"/><stop offset="1" stop-opacity="0"/></radialGradient><linearGradient id="f" gradientUnits="userSpaceOnUse" x1="306.917" y1="-25.792" x2="305.955" y2="-141.415" gradientTransform="matrix(.1507 0 0 .43482 -11.708 67.283)"><stop offset="0" stop-color="#757575"/><stop offset="1" stop-color="#9e9e9e"/></linearGradient><linearGradient id="g" gradientUnits="userSpaceOnUse" x1="254" y1="170" x2="254" y2="-147.5"><stop offset="0" stop-color="#424242"/><stop offset="1" stop-color="#616161"/></linearGradient></defs><path d="M18.523 56.066h26.461v2.649h-26.46zm0 0" fill="url(#a)"/><path d="M44.984 56.066h5.293v-2.644h-5.293zm0 0" fill="url(#b)"/><path d="M18.523 56.066H13.23v2.649h5.293zm0 0" fill="url(#c)"/><path d="M18.523 56.066H13.23v-2.644h5.293zm0 0" fill="url(#d)"/><path d="M44.984 56.066h5.293v2.649h-5.293zm0 0" fill="url(#e)"/><path d="M18.523 5.793h26.461a5.292 5.292 0 0 1 5.293 5.293v39.691a5.291 5.291 0 0 1-5.293 5.29h-26.46a5.291 5.291 0 0 1-5.294-5.29V11.086a5.292 5.292 0 0 1 5.293-5.293zm0 0" fill="url(#f)"/><path d="M148.173-147.506h211.668c11.686 0 21.154 9.467 21.154 21.185v232.822c0 11.686-9.468 21.154-21.154 21.154H148.173c-11.686 0-21.185-9.468-21.185-21.154v-232.822c0-11.718 9.499-21.185 21.185-21.185zm0 0" transform="translate(0 26.878) scale(.12501)" fill="url(#g)" stroke-width="3" stroke-linecap="round" stroke="#212121"/><path d="M26.461 6.453h10.586a.663.663 0 0 1 0 1.324H26.46a.66.66 0 0 1-.66-.66.66.66 0 0 1 .66-.664zm0 0M31.754 46.805a2.647 2.647 0 1 1-2.649 2.648 2.65 2.65 0 0 1 2.649-2.648zm0 0" fill="#616161" fill-opacity=".275" stroke-width=".37503000000000003" stroke-linecap="round" stroke="#212121"/><path d="M18.523 5.793a5.28 5.28 0 0 0-5.293 5.293v.66a5.28 5.28 0 0 1 5.293-5.293h26.461c2.93 0 5.293 2.36 5.293 5.293v-.66a5.282 5.282 0 0 0-5.293-5.293zm0 0" fill="#fff" fill-opacity=".392"/><path d="M18.523 56.066a5.279 5.279 0 0 1-5.293-5.289v-.664a5.28 5.28 0 0 0 5.293 5.293h26.461c2.93 0 5.293-2.36 5.293-5.293v.664c0 2.93-2.363 5.29-5.293 5.29zm0 0" fill-opacity=".235"/><path d="M18.523 5.793h26.461a5.292 5.292 0 0 1 5.293 5.293v39.691a5.291 5.291 0 0 1-5.293 5.29h-26.46a5.291 5.291 0 0 1-5.294-5.29V11.086a5.292 5.292 0 0 1 5.293-5.293zm0 0" fill="none" stroke-width=".37503000000000003" stroke-linecap="round" stroke="#212121"/><path d="M42.336 46.805a2.65 2.65 0 0 1 2.648 2.648 2.647 2.647 0 1 1-2.648-2.648zm0 0M21.168 46.805a2.65 2.65 0 0 1 2.648 2.648 2.647 2.647 0 1 1-2.648-2.648zm0 0" fill="#616161" fill-opacity=".275" stroke-width=".37503000000000003" stroke-linecap="round" stroke="#212121"/></svg>
